!!!OTL: 678a. Lass rauschen!
!!!ODT: 1646
!!!ARE: Europa, Mitteleuropa, Deutschland
!!!SCT: E0678
!!!TXL: @@DE
!!!YEM: Copyright 1995, estate of Helmut Schaffrath.
**kern	**text
*ICvox	*
*M4/4	*
*met(c)	*
*k[b-]	*
*F:	*
!LO:TX:a:t=Mel. "Die Amſel dicht ʒu morgen."	!
!LO:TX:a:t=Werlins Hdſchr. 1646. Altd. Ldb. S. 270 (mit falſchem Schlüſſel).	!
{4f	Jch
=1	=1
4f	hört
4a	ein
4g	Sich-
4f	-lein
=2	=2
2cc	rau-
4cc}	-ſchen,
{4f	wol
=3	=3
4cc	rau-
4cc	-ſchen
4b-/	durch
4a	das
=4	=4
2g	Korn,
4r}	.
{4cc	ich
=5	=5
4b-	hört
4a	ein
4g	fein
4f	Magd
=6	=6
2cc	kla-
4a}	-gen,
{4f	ſie
=7	=7
4g	hätt
4a	ihr
4b-/	Lieb
4g	ver-
=8	=8
2f	-lorn.
4r}	.
==	==
!!!AGN: Liebes - Lied, Leid, Klage
!!!ONB: ESAC (Essen Associative Code) Database: ERK2
!!!AMT: simple quadruple
!!!AIN: vox
!!!EED: Helmut Schaffrath
!!!EEV: 1.0
!!!GTL: Liebeslieder [Neuere (aus dem 18. bis 19. Jahrh.) - Liebesleid]
!!!URL-scan: https://rosdok.uni-rostock.de/mcrviewer/recordIdentifier/rosdok_ppn745177662/iview2/phys_0476.iview2?x=193.8995864193107&y=1163.8618708320428&scale=0.7029437510502773&rotation=0&layout=singlePageLayout
!!!ENC: Anna Maria Matuszewska
!!!EEV: 2024/12/12
*-	*-
